X: 44
T:The First Frost - Second part
% Nottingham Music Database
S:John Goodacre 1984, via PR
M:4/4
L:1/4
K:D
"D"D2 F2|"A7"E2 C2|"D"DG/2B/2 A2|"A7"G/2A/2B/2c/2 "D"dA/2F/2|"Bm"D2 F2|\
"Em"E2 "A7"C2|"D"DF/2A/2 "A7"c/2B/2A|"D"dA/2F/2 D2::
"D"D2 F2|"A7"G2 CE|"D"D2 F2|"A"A2 "G"GF/2E/2|"D"D2 F2|"Em"E2 "A7"C2|\
"D"DF/2A/2 "A7"c/2B/2A|"D"dA/2F/2 D2:|<end>
<start>
